X: 1
T: String Quartet in D Major opus 71 no 2 mvt 4
C: Franz Joseph Haydn
%%abc-version 2.0
%%abcx-abcm2ps-target-version 5.9.1 (29 Sep 2008)
%%abc-creator hum2abc beta
%%abcx-conversion-date 2021/02/14 14:38:26
%%abc-copyright Copyright (c) 1994, 2000 Center for Computer Assisted Research in the Humanities
%%abc-edited-by Frances Bennion
%%abcx-initial-encoding-date 1997/04/15
%%gracespace 0 6 6
%%humdrum-veritas 2381602622
%%humdrum-veritas-data 1152823778
%%linebreak <none>
%%barnumbers 0
L: 1/8
M: 6/8
N: Derived from op71n2-04.krn
Q: "Finale: Allegretto---Vivace"
%%staves [1 2 3 4]
V: 1
V: 2
V: 3 clef=alto
V: 4 clef=bass
K: D
[V:1]z4 AG [I:setbarnb1]|
[V:2]z4 z2 |
[V:3]z4 z2 |
[V:4]z4 z2 |
[V:1]FEF GFG |
[V:2]D2z E2z |
[V:3]A,2z B,2z |
[V:4]D,2z G,,2z |
[V:1]EDE Fdc |
[V:2]C2z DzD |
[V:3]G,2z F,zA, |
[V:4]A,,2z D,zF, |
[V:1]zBA zGF |
[V:2]DzD CzD |
[V:3]B,zF, A,zA, |
[V:4]G,zF, E,zD, |
[V:1]A2F EAG |
[V:2]F2D Cz2 |
[V:3]D,F,^G, A,z2 |
[V:4]A,,2>A,2 z2 |
[V:1]FEF GFG |
[V:2]D2z E2z |
[V:3]A,2z B,2z |
[V:4]D,2z G,,2z |
[V:1]EDE FA^A |
[V:2]C2z DzG |
[V:3]G,2z F,zE |
[V:4]A,,2z D,zC |
[V:1]Bcd AB^G |
[V:2]F3 E2D |
[V:3]FED CDB, |
[V:4]DCB, E,3 |
[V:1]B2>A2 z2 |
[V:2]D2>C2 z2 |
[V:3]^G,2>A,2 EF |
[V:4]A,,2E, A,CD |
[V:1]z4 AB |
[V:2]z4 FG |
[V:3]GDE F=CB, |
[V:4]EB,C DD,D, |
[V:1]=cGA B^cd |
[V:2]AEF GEF |
[V:3]A,B,A, G,G,F, |
[V:4]D,4 E,D, |
[V:1]eGF BGE |
[V:2]GED B,3 |
[V:3]E,A,A, DE,G, |
[V:4]C,2D, G,,3 |
[V:1]D2>C2 AG |
[V:2]A,B,^G, A,z2 |
[V:3]F,2=F, E,z2 |
[V:4]A,,4 z2 |
[V:1]FEF GFG |
[V:2]zDC B,A,B, |
[V:3]z6 |
[V:4]z6 |
[V:1]EDE FGA |
[V:2]CB,C D2C |
[V:3]zA,G, F,E,F, |
[V:4]z6 |
[V:1]AGG G3 |
[V:2]B,3 A,3 |
[V:3]G,3 E3 |
[V:4]zE,D, C,B,,C, |
[V:1]FD^G AD^A |
[V:2]D6- |
[V:3]A,3 D,3 |
[V:4]D,3 F,,3 |
[V:1]BDB =cDc |
[V:2]D3 A3 |
[V:3]D,6- |
[V:4]G,,3 F,,3 |
[V:1]BDc dzB |
[V:2]G2E DzG |
[V:3]D,2A, A,zC |
[V:4]G,,2G, F,z2 |
[V:1]AzG FAC |
[V:2]FzE D2C |
[V:3]DzB, A,2G, |
[V:4]z2G,, A,,3 |
[V:1]E2>D2 [aA][gA] |
[V:2]C2>D2 [Ae][eA] |
[V:3]G,2>F,2 CC |
[V:4]D,,2A,, D,A,C |
[V:1][=fA][eA]d egf |
[V:2][=fA]cd d3- |
[V:3]DG=F _B3 |
[V:4]DE=F G3 |
[V:1]e=fd cag |
[V:2]d3 c/A,/B,/C/D/E/ |
[V:3]B2>A2 z2 |
[V:4]^G2>A2 z2 |
[V:1]=fd'=c' _b/a/g/^f/g/a/ |
[V:2]=F/G/A/F/G/A/ _B/=c/d/_e/d/c/ |
[V:3]D/E/=F/D/E/F/ G/A/_B/=c/B/A/ |
[V:4]z6 |
[V:1]_b/a/g/f/g/a/ b/a/g/=f/e/d/ |
[V:2]_B/=c/d/_e/d/c/ B/c/d/c/B/A/ |
[V:3]G/A/_B/=c/B/A/ G/A/B/A/G/=F/ |
[V:4]z6 |
[V:1]=c/d/e/d/e/=f/ g/a/_b/e/f/g/ |
[V:2]G/A/_B/A/B/A/ G/=F/E/B/=c/B/ |
[V:3]E/=F/G/F/G/F/ E/D/=C/G/A/E/ |
[V:4]z6 |
[V:1]aag z=fe |
[V:2]A=fe zd=c |
[V:3]=F2z4 |
[V:4]=F,,/G,,/A,,/_B,,/=C,/^C,/ D,/E,/=F,/G,/^G,/A,/ |
[V:1]zd=c B/c/d/e/=f/B/ |
[V:2]z_BA/G/ =F3 |
[V:3]z3 G3- |
[V:4]_B,/=C/D/E/=F/E/ D3 |
[V:1]=c/d/e/=f/g/a/ _b/=c'/d'/e'/=f'/g'/ |
[V:2]E3 [E3=c3] |
[V:3]G6 |
[V:4]=C3 _B,3 |
[V:1]a'2>g'2 =f'e' |
[V:2][=c3=F3] d/_B/AG |
[V:3]=C/D/E/=F/G/A/ _B=cC |
[V:4]A,/_B,/=C/D/E/=F/ B,C=C, |
[V:1]=f'=fd' _e'fc' |
[V:2]=FAB =cAA |
[V:3]=F6- |
[V:4]=F,2z4 |
[V:1]d'da _bge |
[V:2]_B2c dBG |
[V:3]F4- F_B, |
[V:4]z6 |
[V:1]=f6- |
[V:2]=F2G _A2=A |
[V:3]A,=F,B, =CF,^C |
[V:4]=F,,6- |
[V:1]f2f g_be |
[V:2]_B2A G3 |
[V:3]D=F,=C _B,3 |
[V:4]F,,6- |
[V:1]=f=c_B AGA |
[V:2]A2<z2 =FE |
[V:3]A,z4 z |
[V:4]F,,z4 z |
[V:1]_BAB G=FG |
[V:2]D=CD EDE |
[V:3]z4 =C_B, |
[V:4]z6 |
[V:1]A_B=c2 BA |
[V:2]=F2_E D3 |
[V:3]A,G,A, F,3 |
[V:4]z4 D,=C, |
[V:1]GFG A_ed |
[V:2]D2d/_B/ A3 |
[V:3]G,2G G3 |
[V:4]_B,,A,,B,, =C,B,,C, |
[V:1]=c_Bc B2z |
[V:2]A2>G2 _ED |
[V:3]F3 G3 |
[V:4]D,3 _E,3 |
[V:1]z=c_B AGA |
[V:2]=CB,C z=F_E |
[V:3]G,GG =C3 |
[V:4]E,3 =F,3 |
[V:1]zd=c _BAB |
[V:2]DCD zG=F |
[V:3]A,AA D3 |
[V:4]F,3 G,3 |
[V:1]zed cA^G |
[V:2]EDE Ez2 |
[V:3]B,BB EzD |
[V:4]^G,2>A,2 z_B, |
[V:1]zA^G zAG |
[V:2]z6 |
[V:3]CzD CzD |
[V:4]A,z_B, A,zB, |
[V:1]zA^G zAG |
[V:2]z2D CzD |
[V:3]CzF Ez=F |
[V:4]A,z4 z |
[V:1]zA^G zAG |
[V:2]CzD CzD |
[V:3]Ez=F EzF |
[V:4]z6 |
[V:1]zA^G zAG |
[V:2]CzD CzD |
[V:3]Ez=F EzF |
[V:4]z6 |
[V:1]zA^G zA=G |
[V:2]CzD Cz2 |
[V:3]Ez=F Ez2 |
[V:4]z6 |
[V:1]FEF GFG |
[V:2]D2z E2z |
[V:3]A,2z B,2z |
[V:4]D,2z G,,2z |
[V:1]EDE Fdc |
[V:2]C2z DzD |
[V:3]G,2z F,zA, |
[V:4]A,,2z D,zF, |
[V:1]zBA zGF |
[V:2]DzD CzD |
[V:3]B,zF, A,zA, |
[V:4]G,zF, E,zD, |
[V:1]A2F EAG |
[V:2]F2D CF/A,/E/A,/ |
[V:3]D,F,^G, A,z2 |
[V:4]A,,2>A,2 z2 |
[V:1]FEF GFG |
[V:2]E/A,/C/A,/D/A,/ E/B,/^D/B,/E/B,/ |
[V:3]A,2z B,2z |
[V:4]D,2z G,,2z |
[V:1]EDE FA^A |
[V:2]C/A,/B,/A,/C/A,/ DzG |
[V:3]G,2z F,zE |
[V:4]A,,2z D,zC |
[V:1]c/B/d/c/e/d/ AB^G |
[V:2]F3 E2D |
[V:3]FED CDB, |
[V:4]DCB, E,3 |
[V:1]B2>A2 z2 |
[V:2]D2>C2 z2 |
[V:3]^G,2>A,2 E/A/F/A/ |
[V:4]A,,2E, A,CD |
[V:1]z4 A/d/B/d/ |
[V:2]z4 FG |
[V:3]G/A/D/A/E/A/ F/A/=CB, |
[V:4]EB,C DD,D, |
[V:1]=c/d/G/d/A/d/ B^cd |
[V:2]AEF GEF |
[V:3]A,B,A, G,G,F, |
[V:4]D,4 E,D, |
[V:1]eGF BA/G/F/E/ |
[V:2]GED B,3 |
[V:3]E,A,A, DE,G, |
[V:4]C,2D, G,,3 |
[V:1]D2>C2 A/B/G/A/ |
[V:2]A,B,^G, A,z2 |
[V:3]F,2=F, E,z2 |
[V:4]A,,4 z2 |
[V:1]FEF GFG |
[V:2]zD/E/C/D/ B,A,B, |
[V:3]z6 |
[V:4]z6 |
[V:1]EDE FGA |
[V:2]CB,C D2C |
[V:3]zA,/B,/G,/A,/ F,E,F, |
[V:4]z6 |
[V:1]AGG G3 |
[V:2]B,3 A,3 |
[V:3]G,3 E3 |
[V:4]zE,/F,/D,/E,/ C,B,,C, |
[V:1]F/E/F/D/^G A/G/A/D/^A |
[V:2]D6- |
[V:3]A,3 D,3 |
[V:4]D,3 F,,3 |
[V:1]B/^A/B/D/B =c/B/c/D/c |
[V:2]D3 A3 |
[V:3]D,6- |
[V:4]G,,3 F,,3 |
[V:1]B/^A/B/D/c d/f/e/d/c/B/ |
[V:2]G2E DzG |
[V:3]D,2A, A,zC |
[V:4]G,,2G, F,z2 |
[V:1]A/d/c/B/A/G/ FAC |
[V:2]FzE D2C |
[V:3]DzB, A,2G, |
[V:4]z2G,, A,,3 |
[V:1]E2>D2 BE |
[V:2]C3 D2E |
[V:3]G,3 F,2A, |
[V:4]B,,4- B,,C, |
[V:1]G2>F2 d^G |
[V:2]E3 F2^G |
[V:3]A,4 FB, |
[V:4]D,4- D,E, |
[V:1]B2>A2 gc |
[V:2]^G2>A2 zA |
[V:3]D2>C2 zG |
[V:4]A,4 z2 |
[V:1]da^d ebd |
[V:2]z=cB z2c |
[V:3]FzA GzA |
[V:4]z6 |
[V:1]e=c'/b/a/g/ fed |
[V:2]B6 |
[V:3]G3 ^G3 |
[V:4]z6 |
[V:1]czc dzd |
[V:2]AzA BzB |
[V:3]AA,A ^GA,G |
[V:4]z6 |
[V:1]eze fzf |
[V:2]czc dz^d |
[V:3]GA,G FA,F |
[V:4]z6 |
[V:1]gec AGE |
[V:2]eA,A, A,2C |
[V:3]EG,G, G,G,G, |
[V:4]C,4 E,G, |
[V:1]C2>z2 ag |
[V:2]E3 z3 |
[V:3]G,3 z3 |
[V:4]A,,3 z3 |
[V:1]fef gfg |
[V:2]AGA BAB |
[V:3]d6 |
[V:4]D,DD DDD |
[V:1]ede fd'c' |
[V:2]GFG Fzd |
[V:3]c2>d2 zA |
[V:4]D,DD DzF, |
[V:1]zba zgf |
[V:2]dzd czd |
[V:3]BzF AzA |
[V:4]G,zF, E,zD, |
[V:1]a2f eag |
[V:2]f2d cAG |
[V:3]DF^G AF/A,/E/A,/ |
[V:4]A,,2>A,2 z2 |
[V:1]fef gfg |
[V:2]FEF GFG |
[V:3]D/A,/C/A,/D/A,/ E/A,/D/A,/E/A,/ |
[V:4]D,,D,D, D,D,D, |
[V:1]ede fa^a |
[V:2]EDE Fze |
[V:3]C/A,/B,/A,/C/A,/ DzG |
[V:4]D,,D,D, D,zC |
[V:1]bc'd' ab^g |
[V:2]fed cdB |
[V:3]F3 E2D |
[V:4]DCB, E,3 |
[V:1]b2>a2 ef |
[V:2]^G2>A2 cd |
[V:3]D2>C2 AF |
[V:4]A,,2E, A,z2 |
[V:1]gde fab |
[V:2]eBc dfg |
[V:3]EGE D=cB |
[V:4]z4 DD |
[V:1]=c'ga b^c'd' |
[V:2]aef gef |
[V:3]ABA GGF |
[V:4]D4 ED |
[V:1]e'gf ba/g/f/e/ |
[V:2]ged B3 |
[V:3]EAA dEG |
[V:4]C2D G,3 |
[V:1]d2>c2 ag |
[V:2]AB^G Afe |
[V:3]F2=F Ez2 |
[V:4]A,4 z2 |
[V:1]fef gab |
[V:2]dcd efg |
[V:3]zBA GFE |
[V:4]z6 |
[V:1]ede fga |
[V:2]cBc d2c |
[V:3]AAG FEF |
[V:4]z6 |
[V:1]agg g2f |
[V:2]B2>A2 cd |
[V:3]G3 e2d |
[V:4]zED CA,D |
[V:1]egb dec |
[V:2]B2G FGE |
[V:3]G2E A2G |
[V:4]G,3 A,3 |
[V:1]dzd eze |
[V:2]FzF GzG |
[V:3]FD,D, D,3- |
[V:4]DD,D CD,C |
[V:1]fzf gzg |
[V:2]AzA BzB |
[V:3]D,6 |
[V:4]=CD,C B,D,B, |
[V:1]^gzg aza |
[V:2]dzD dzD |
[V:3]=F3 ^F3 |
[V:4]_B,D,B, A,D,A, |
[V:1]b3 z2b |
[V:2]d3 z3 |
[V:3]=F3 z3 |
[V:4]^G,3 z3 |
[V:1]a/d'/c'/b/a/g/ f/b/a/g/f/e/ |
[V:2]F2z F2z |
[V:3]D2z D2z |
[V:4]A,2z A,2z |
[V:1]d/f/e/d/c/B/ A/B/A/G/F/E/ |
[V:2]F2z G2z |
[V:3]D2z [C2E2]z |
[V:4]A,2z A,2z |
[V:1]D/F/E/D/C/B,/ A,/F/E/D/C/B,/ |
[V:2]F2z F2z |
[V:3]D2G, F,2G, |
[V:4]D,2z D,2z |
[V:1]A,/G/F/E/D/C/ B,/A/G/F/E/D/ |
[V:2]A,3 B,3 |
[V:3]F,3 G,3 |
[V:4]D,2z D,2z |
[V:1]C/B/A/G/F/E/ D/f/e/d/c/B/ |
[V:2][E3C3] [A,3F3] |
[V:3]G,3 F,3 |
[V:4]D,2z D,2z |
[V:1]A/^G/F/E/F/D/ C/A/G/F/E/D/ |
[V:2]^G3 A/A/G/F/E/D/ |
[V:3]D3 E/A/^G/F/E/D/ |
[V:4]B,,3 A,,/A,/^G,/F,/E,/D,/ |
[V:1]C/F/E/D/C/B,/ A,2z |
[V:2]C/F/E/D/C/B,/ A,AG |
[V:3]C/F/E/D/C/B,/ A,2z |
[V:4]C,/F,/E,/D,/C,/B,,/ A,,3- |
[V:1]zdc BAB |
[V:2]FEF GFG |
[V:3]z6 |
[V:4]A,,6- |
[V:1]cBc d2c |
[V:2]EDE FGA |
[V:3]zA,G, F,E,F, |
[V:4]A,,6- |
[V:1]B2>A2 AA |
[V:2]AGG GFE |
[V:3]G,E,D, C,CC |
[V:4]A,,4 A,,G,, |
[V:1]A2>G2 GG |
[V:2]^D3 E3- |
[V:3]=C3 B,2_B, |
[V:4]F,,E,,F,, G,,E,,D,, |
[V:1]G2F Eec |
[V:2]EED B,BG |
[V:3]A,3 G2E |
[V:4]C,,C,D, G,,2A,, |
[V:1]d'/c'/b/a/g/f/ e/b/a/g/f/e/ |
[V:2]AzA BzE |
[V:3]DzF GzB, |
[V:4]F,,z4 G, |
[V:1]d/f/e/d/c/B/ A/B/A/G/F/E/ |
[V:2]Fz=F DzC |
[V:3]DzD FzG, |
[V:4]A,z^G, A,zA,, |
[V:1]d'/c'/b/a/g/f/ e/b/a/g/f/e/ |
[V:2]AzA BzE |
[V:3]F,zF GzB, |
[V:4]F,,z4 G, |
[V:1]d/f/e/d/c/B/ A/B/A/G/F/E/ |
[V:2]Fz=F DzC |
[V:3]DzD FzA, |
[V:4]A,z^G, A,zA,, |
[V:1]D/E/F/A,/B,/C/ D/E/F/A,/B,/C/ |
[V:2]D/E/F/A,/B,/C/ D/E/F/A,/B,/C/ |
[V:3]D/E/F/A,/B,/C/ D/E/F/A,/B,/C/ |
[V:4]D,/E,/F,/A,,/B,,/C,/ D,/E,/F,/A,,/B,,/C,/ |
[V:1]D/E/F/B,/C/D/ E/F/G/C/D/E/ |
[V:2]D/E/F/B,/C/D/ E/F/G/C/D/E/ |
[V:3]D/E/F/B,/C/D/ E/F/G/C/D/E/ |
[V:4]D,/E,/F,/B,,/C,/D,/ E,/F,/G,/C,/D,/E,/ |
[V:1]F/G/A/D/E/F/ G/A/B/c/d/e/ |
[V:2]F/G/A/D/E/F/ G/A/B/c/d/e/ |
[V:3]F/G/A/D/E/F/ G/A/B/c/d/e/ |
[V:4]F,/G,/A,/D,/E,/F,/ G,/A,/B,/C/D/E/ |
[V:1]fdB GEA |
[V:2]fdB GEA |
[V:3]fdB GEA |
[V:4]FDB, G,E,A, |
[V:1]DFA dfa |
[V:2]DFA dfa |
[V:3]DFA dAF |
[V:4]D,F,A, DA,F, |
[V:1]d'2z [f2d'2D2]z |
[V:2]f2z [f2A2D2]z |
[V:3]D2z [D,2A,2D2]z |
[V:4]D,2z D,,2z |
[V:1][d'2f2D2]z4 |]
[V:2][f2D2A2]z4 |]
[V:3][A,2D,2D2]z4 |]
[V:4]D,,2z4 |]

